X:1
T:Title
L:1/8
Q:1/4=100
M:6/8
K:G
V:1 treble nm="Church Organ, Staff"
V:1
 D G2 A B2 | c d2 B G2 | G A2 A B2 | c B2- B B2 | B B2 _B =B2 | ^c d2 c B2 | B d2 B^cB | %7
w: By~Henry~Knight * * *|||||||
 _B =B2- B B2 | d d2 d g2 | B B2 B e2 | B e2 d c2 | B A2- A .A2 | D G2 A B2 | c d2 B g2 | %14
w: |||||||
 B d2 GAG | F G2- G G2 |] %16
w: ||

